X:3
T: Herr und Schildknecht
N: Q0034
O: Mitteleuropa, Deutschland (BRD) , Westfalen, Soester Gegend
N: Zweite und vierte Zeile und Schluss = Refrain.
R: Ballade, Tod, Unfall, Herr und Knecht
M: 2/4
L: 1/16
K: D
D2 | D2A2A2A2 | B2A2G4 |
(3A2B2c2 | d4A4z2
D2 | D2A2A2A2 | B2A2G4 |
(3A2B2c2 | d4A4z2
AA | (3d2d2d2=c2A2 | =c2c2=F4 |
(3G2G2G2(3A2A2A2 | _B2G2A4 |
G2E2=F2D2 | E2E2D4 |
(3A2A2A2 | d4A4z2

@@@ Tune index: 739
